src/assets/SortAscending.svg

<svg width="24" height="24" viewBox="0 0 24 24" fill="none" xmlns="http://www.w3.org/2000/svg">
<path fill-rule="evenodd" clip-rule="evenodd" d="M0 3.15789C0 2.32946 0.671573 1.65789 1.5 1.65789H10.3884C11.2169 1.65789 11.8884 2.32946 11.8884 3.15789C11.8884 3.98632 11.2169 4.65789 10.3884 4.65789H1.5C0.671573 4.65789 0 3.98632 0 3.15789Z" fill="#333333"/>
<path fill-rule="evenodd" clip-rule="evenodd" d="M0 12C0 11.1716 0.671573 10.5 1.5 10.5H12.6428C13.4712 10.5 14.1428 11.1716 14.1428 12C14.1428 12.8284 13.4712 13.5 12.6428 13.5H1.5C0.671573 13.5 0 12.8284 0 12Z" fill="#333333"/>
<path fill-rule="evenodd" clip-rule="evenodd" d="M0 20.8421C0 20.0137 0.671573 19.3421 1.5 19.3421H22.5C23.3284 19.3421 24 20.0137 24 20.8421C24 21.6705 23.3284 22.3421 22.5 22.3421H1.5C0.671573 22.3421 0 21.6705 0 20.8421Z" fill="#333333"/>
<path fill-rule="evenodd" clip-rule="evenodd" d="M13.2682 8.01337C12.7588 7.50399 12.7566 6.68035 13.2632 6.17373L17.5196 1.91732C18.0262 1.4107 18.8498 1.41293 19.3592 1.92231L23.4912 6.05427C24.0006 6.56365 24.0028 7.38729 23.4962 7.89391C22.9896 8.40054 22.1659 8.39831 21.6565 7.88893L19.7512 5.98363L19.7512 15.0825C19.7532 15.801 19.1724 16.3818 18.4539 16.3798C17.7355 16.3779 17.1515 15.7939 17.1496 15.0755L17.1496 5.97658L15.1078 8.01835C14.6012 8.52498 13.7776 8.52275 13.2682 8.01337Z" fill="#333333"/>
</svg>

<svg xmlns="http://www.w3.org/2000/svg" width="24" height="24" fill="none"><path fill="#333" fill-rule="evenodd" d="M0 3.158a1.5 1.5 0 0 1 1.5-1.5h8.888a1.5 1.5 0 1 1 0 3H1.5a1.5 1.5 0 0 1-1.5-1.5M0 12a1.5 1.5 0 0 1 1.5-1.5h11.143a1.5 1.5 0 0 1 0 3H1.5A1.5 1.5 0 0 1 0 12M0 20.842a1.5 1.5 0 0 1 1.5-1.5h21a1.5 1.5 0 0 1 0 3h-21a1.5 1.5 0 0 1-1.5-1.5M13.268 8.013a1.3 1.3 0 0 1-.005-1.84l4.257-4.256a1.3 1.3 0 0 1 1.84.005l4.131 4.132a1.3 1.3 0 0 1 .005 1.84 1.3 1.3 0 0 1-1.84-.005l-1.905-1.905v9.099c.002.718-.579 1.299-1.297 1.297a1.31 1.31 0 0 1-1.304-1.304v-9.1l-2.042 2.042a1.3 1.3 0 0 1-1.84-.005" clip-rule="evenodd"/></svg>
